!!!SOCIAL_FUNCTION:	summer dances
!!!PDT:	1956
!!!OTL: No_193_Drunken_Dance_Song_(a).krn
!!!LANG: Non-Tone
!!!LING_GROUP: Muskogean
!!!REG: Florida
**kern
*staff1
=1-
*clefF4
*k[f#]
*M3/4
16F#\LL
16D\J
8D\J
(16G\LL
16F#\JJ)
8r
16G\LK
8.D\J
=2||
*M2/4
16G\LL
16G\J
8G\J
16F#\LL
16F#\JJ
8r
=3
4G\
8r
16D\LL
16D\JJ
=4||
*M3/4
12G\L
12G\
12F#\J
16A\LK
[8.G\J
8G\]
16r
16G\
=5||
*M2/4
8.G\L
16G\Jk
8.G\L
16F#\Jk
=6
4G\
8r
16D\LL
16D\JJ
=7
8.D\L
16B\Jk
(12B\L
12F#\)
12A\J
=8
4G\
8.r
16G\
=9
8.G\L
16A\Jk
8.G\L
16F#\Jk
=10
4G\
8.r
16D\
=11
8.D\L
16G\Jk
(12G\L
12F#\)
12A\J
=12
4G\
8r
16G\LL
16G\JJ
=13
8.G\L
16A\Jk
8.G\L
16F#\Jk
=14
4G\
8.r
16D\
=15
8.D\L
16G\Jk
8.G\L
16D\Jk
=16
4.D\
16G\LL
16G\JJ
=17
8.G\L
16A\Jk
8.G\L
16D\Jk
=18
4D\
8.r
16D\
=19
8.D\L
16G\Jk
8.G\L
16D\Jk
=20
4.D\
16G\LL
16G\JJ
=21
8.G\L
16A\Jk
8.G\L
16D\Jk
=22
4D\
8.r
16D\
=23
8.D\L
16G\Jk
8.G\L
16D\Jk
=24
4.D\
16G\LL
16G\JJ
=25
8.G\L
16A\Jk
8.G\L
16D\Jk
=26
4D\
4r
==
*-
